X: 33927
T: Red-Haired Girl, The
R: slip jig
M: 9/8
K: Adorian
B|cAA AGE A3|BAF G3 GBd|cAA AGE A2 G|Bge dBG A2 B|
cAA AGE A3|B (3gfe dBG GAB|cAA AGE A2 G|Bge dBG A2 B||
e2 a age a3|g3 dBd ged|e2 a age a3|g2 e dBG A (3Bcd|
e2 a age a3|g2 e dBd ged|cec (3Bcd B AGE|g2 e dBG A2 B||

